assets/logos/white_logo/apple2.svg

<?xml version="1.0" encoding="UTF-8" standalone="no"?>
<svg
   xmlns:dc="http://purl.org/dc/elements/1.1/"
   xmlns:cc="http://creativecommons.org/ns#"
   xmlns:rdf="http://www.w3.org/1999/02/22-rdf-syntax-ns#"
   xmlns:svg="http://www.w3.org/2000/svg"
   xmlns="http://www.w3.org/2000/svg"
   xmlns:sodipodi="http://sodipodi.sourceforge.net/DTD/sodipodi-0.dtd"
   xmlns:inkscape="http://www.inkscape.org/namespaces/inkscape"
   width="500"
   height="200"
   viewBox="0 0 500 200"
   version="1.1"
   id="svg132"
   sodipodi:docname="apple2.svg"
   style="fill:none"
   inkscape:version="0.92.5 (2060ec1f9f, 2020-04-08)">
  <metadata
     id="metadata136">
    <rdf:RDF>
      <cc:Work
         rdf:about="">
        <dc:format>image/svg+xml</dc:format>
        <dc:type
           rdf:resource="http://purl.org/dc/dcmitype/StillImage" />
        <dc:title></dc:title>
      </cc:Work>
    </rdf:RDF>
  </metadata>
  <sodipodi:namedview
     pagecolor="#ffffff"
     bordercolor="#666666"
     borderopacity="1"
     objecttolerance="10"
     gridtolerance="10"
     guidetolerance="10"
     inkscape:pageopacity="0"
     inkscape:pageshadow="2"
     inkscape:window-width="1366"
     inkscape:window-height="740"
     id="namedview134"
     showgrid="false"
     inkscape:pagecheckerboard="true"
     inkscape:zoom="1.0319125"
     inkscape:cx="283"
     inkscape:cy="83"
     inkscape:window-x="0"
     inkscape:window-y="0"
     inkscape:window-maximized="1"
     inkscape:current-layer="svg132" />
  <g
     clip-path="url(#clip0)"
     id="g125"
     transform="matrix(0.88311588,0,0,0.88311588,8.8049948,26.256993)">
    <path
       d="m 172.9,74.9196 h -11.544 c -6.788,0 -12.232,5.5424 -12.232,12.331 0,6.7886 5.411,12.2326 12.232,12.2326 h 6.854 v 17.2828 h -12.265 c -15.381,0 -28.827,-14.758 -28.827,-29.745 0,-16.2991 13.217,-29.3844 28.598,-29.3844 h 37.255 V 116.799 H 172.9 Z"
       id="path109"
       inkscape:connector-curvature="0"
       style="fill:#ffffff" />
    <path
       d="m 224.619,134.082 h -20.07 V 57.6366 h 37.255 c 15.381,0 28.597,13.0853 28.597,29.3844 0,14.987 -13.446,29.745 -28.826,29.745 H 229.309 V 99.4832 h 6.854 c 6.789,0 12.233,-5.4112 12.233,-12.2326 0,-6.8214 -5.411,-12.331 -12.233,-12.331 h -11.544 z"
       id="path111"
       inkscape:connector-curvature="0"
       style="fill:#ffffff" />
    <path
       d="M 298.572,134.082 H 278.501 V 57.6366 h 37.255 c 15.381,0 28.598,13.0853 28.598,29.3844 0,14.987 -13.446,29.745 -28.827,29.745 H 303.261 V 99.4832 h 6.854 c 6.789,0 12.233,-5.4112 12.233,-12.2326 0,-6.8214 -5.411,-12.331 -12.233,-12.331 h -11.543 z"
       id="path113"
       inkscape:connector-curvature="0"
       style="fill:#ffffff" />
    <path
       d="M 372.656,39.5336 V 116.766 H 352.585 V 39.5336 Z"
       id="path115"
       inkscape:connector-curvature="0"
       style="fill:#ffffff" />
    <path
       d="m 448.083,57.6366 v 17.2502 l -11.314,19.6115 h -22.137 l 11.315,-19.5459 h -10.79 c -6.789,0 -12.232,5.5424 -12.232,12.331 0,6.7886 5.411,12.2326 12.232,12.2326 h 32.926 v 17.283 h -38.337 c -15.381,0 -28.827,-14.758 -28.827,-29.7452 0,-16.2992 13.216,-29.3844 28.597,-29.3844 h 38.567 z"
       id="path117"
       inkscape:connector-curvature="0"
       style="fill:#ffffff" />
    <path
       d="M 497.357,34.1227 V 116.799 H 464.103 V 98.3356 h 11.248 V 53.5374 H 464.103 V 34.1227 Z m 40.764,0 v 19.4147 h -11.249 v 44.7982 h 11.249 V 116.799 H 504.867 V 34.1227 Z"
       id="path119"
       inkscape:connector-curvature="0"
       style="fill:#ffffff" />
    <path
       d="m 93.276,29.6 c 6.2,-6.8 9.4,-16.3 9.8,-29.1 V 0 l -0.4,0.1 c -21.7,4.4 -32.9,18 -33.3,40.4 v 0.4 l 0.4,-0.1 c 10.4,-1.5 18,-5.2 23.5,-11.2 z"
       id="path121"
       inkscape:connector-curvature="0"
       style="fill:#ffffff" />
    <path
       d="m 140.876,121.6 -0.3,-0.2 c -6.4,-3.2 -14.9,-10.1 -19.8,-20 l -0.1,-0.2 c -2.9,-6 -4.4,-13 -2.9,-20.5 v -0.1 h 0.1 c 1.5,-7.2 5.4,-14.1 11.9,-20.8 l 0.6,-0.6 c 1.4,-1.4 3,-2.9 4.6,-4.2 l 0.3,-0.2 -0.2,-0.3 c -8.1,-10 -19.1,-15.4 -31.9,-15.6 h -0.6 c -6.5001,0 -12.2001,1.2 -16.6001,3.6 -5.7,3 -9.9,3.7 -9.9,3.7 -0.1,0 -0.5,0 -1.8,0 -1.5,0 -2.9,0 -3,0 h -0.1 c -1.8,-0.2 -6.4,-1 -10.2,-3 -5.1,-2.7 -10.8,-4.2 -16.4,-4.2 h -0.4 c -15,-0.1 -27.5,7.3 -35.20002,20.2 l -0.1,0.2 c -3.7,6.1 -6.2,13.2 -7.4,20.8 v 0.3 c -0.999996,6.7 -0.999996,13.7 -0.1,20.7 l 0.1,0.4 c 0.8,6.1 2.5,13.5 5.7,21.6 l 0.2,0.5 c 2.90002,7.3 6.70002,14.3 11.30002,21 l 0.4,0.6 c 3.6,5.2 7.7,10.2 12.2,15 3.4,3.6 8.9,5.6 15.5,5.6 4.8,0 9.7,-1.1 12.9,-2.9 6.6,-3.7 10.1,-3.7 12.7,-3.8 0.5,0 1,0 1.5,0 h 0.4 0.1 c 0.5,0 1.1,-0.1 1.7,-0.1 2.3,0 5.7,0.4 11.8,3.9 4.3,1.8 8.5,2.7 12.4001,2.7 10.7,0 20.1,-6.7 28.6,-20.4 l 0.4,-0.6 c 4.2,-6.8 7.7,-14.4 10.8,-21 l 0.2,-0.5 z"
       id="path123"
       inkscape:connector-curvature="0"
       style="fill:#ffffff" />
  </g>
  <defs
     id="defs130">
    <clipPath
       id="clip0">
      <rect
         width="564.703"
         height="165.918"
         transform="translate(0.645508,0.0820312)"
         id="rect127"
         x="0"
         y="0"
         style="fill:#ffffff" />
    </clipPath>
  </defs>
</svg>

<svg width="566" height="166" viewBox="0 0 566 166" fill="none" xmlns="http://www.w3.org/2000/svg">
<g clip-path="url(#clip0)">
<path d="M172.9 74.9196H161.356C154.568 74.9196 149.124 80.462 149.124 87.2506C149.124 94.0392 154.535 99.4832 161.356 99.4832H168.21V116.766H155.945C140.564 116.766 127.118 102.008 127.118 87.021C127.118 70.7219 140.335 57.6366 155.716 57.6366H192.971V116.799H172.9V74.9196Z" fill="white"/>
<path d="M224.619 134.082H204.549V57.6366H241.804C257.185 57.6366 270.401 70.7219 270.401 87.021C270.401 102.008 256.955 116.766 241.575 116.766H229.309V99.4832H236.163C242.952 99.4832 248.396 94.072 248.396 87.2506C248.396 80.4292 242.985 74.9196 236.163 74.9196H224.619V134.082Z" fill="white"/>
<path d="M298.572 134.082H278.501V57.6366H315.756C331.137 57.6366 344.354 70.7219 344.354 87.021C344.354 102.008 330.908 116.766 315.527 116.766H303.261V99.4832H310.115C316.904 99.4832 322.348 94.072 322.348 87.2506C322.348 80.4292 316.937 74.9196 310.115 74.9196H298.572V134.082Z" fill="white"/>
<path d="M372.656 39.5336V116.766H352.585V39.5336H372.656Z" fill="white"/>
<path d="M448.083 57.6366V74.8868L436.769 94.4983H414.632L425.947 74.9524H415.157C408.368 74.9524 402.925 80.4948 402.925 87.2834C402.925 94.072 408.336 99.516 415.157 99.516H448.083V116.799H409.746C394.365 116.799 380.919 102.041 380.919 87.0538C380.919 70.7546 394.135 57.6694 409.516 57.6694H448.083V57.6366Z" fill="white"/>
<path d="M497.357 34.1227V116.799H464.103V98.3356H475.351V53.5374H464.103V34.1227H497.357ZM538.121 34.1227V53.5374H526.872V98.3356H538.121V116.799H504.867V34.1227H538.121Z" fill="white"/>
<path d="M93.276 29.6C99.476 22.8 102.676 13.3 103.076 0.5V0L102.676 0.1C80.976 4.5 69.776 18.1 69.376 40.5V40.9L69.776 40.8C80.176 39.3 87.776 35.6 93.276 29.6Z" fill="white"/>
<path d="M140.876 121.6L140.576 121.4C134.176 118.2 125.676 111.3 120.776 101.4L120.676 101.2C117.776 95.2 116.276 88.2 117.776 80.7V80.6H117.876C119.376 73.4 123.276 66.5 129.776 59.8L130.376 59.2C131.776 57.8 133.376 56.3 134.976 55L135.276 54.8L135.076 54.5C126.976 44.5 115.976 39.1 103.176 38.9H102.576C96.0759 38.9 90.3759 40.1 85.9759 42.5C80.2759 45.5 76.0759 46.2 76.0759 46.2C75.9759 46.2 75.5759 46.2 74.2759 46.2C72.7759 46.2 71.3759 46.2 71.2759 46.2H71.1759C69.3759 46 64.7759 45.2 60.9759 43.2C55.8759 40.5 50.1759 39 44.5759 39H44.1759C29.1759 38.9 16.6759 46.3 8.97588 59.2L8.87588 59.4C5.17588 65.5 2.67588 72.6 1.47588 80.2V80.5C0.475884 87.2 0.475884 94.2 1.37588 101.2L1.47588 101.6C2.27588 107.7 3.97588 115.1 7.17588 123.2L7.37588 123.7C10.2759 131 14.0759 138 18.6759 144.7L19.0759 145.3C22.6759 150.5 26.7759 155.5 31.2759 160.3C34.6759 163.9 40.1759 165.9 46.7759 165.9C51.5759 165.9 56.4759 164.8 59.6759 163C66.2759 159.3 69.7759 159.3 72.3759 159.2C72.8759 159.2 73.3759 159.2 73.8759 159.2H74.2759H74.3759C74.8759 159.2 75.4759 159.1 76.0759 159.1C78.3759 159.1 81.7759 159.5 87.8759 163C92.1759 164.8 96.3759 165.7 100.276 165.7C110.976 165.7 120.376 159 128.876 145.3L129.276 144.7C133.476 137.9 136.976 130.3 140.076 123.7L140.276 123.2L140.876 121.6Z" fill="white"/>
</g>
<defs>
<clipPath id="clip0">
<rect width="564.703" height="165.918" fill="white" transform="translate(0.645508 0.0820312)"/>
</clipPath>
</defs>
</svg>
